StripePaymentSheet/StripePaymentSheet/Resources/StripePaymentSheet.xcassets/Link/link_logo_bw.imageset/link_logo_bw.svg

<svg fill="none" height="24" viewBox="0 0 72 24" width="72" xmlns="http://www.w3.org/2000/svg"><g fill="#011e0f"><path d="m36.12 3.67683c0-1.12801.9504-2.04481 2.0688-2.04481s2.0688.9216 2.0688 2.04481c0 1.1232-.9168 2.0688-2.0688 2.0688s-2.0688-.9168-2.0688-2.0688z"/><path d="m29.9808 1.92001h3.6v20.15999h-3.6z"/><path d="m40.008 7.68001h-3.6288v14.39999h3.6288z"/><path d="m66.0961 14.3904c2.7312-1.68 4.5887-4.1808 5.3231-6.71516h-3.6288c-.9456 2.41916-3.1152 4.23836-5.5008 5.01116v-10.77117h-3.6288v20.15997h3.6288v-5.9952c2.7696.6912 4.9584 3.0864 5.7072 5.9952h3.6528c-.5568-3.0528-2.6447-5.9088-5.5535-7.6848z"/><path d="m46.44 9.29283c.9504-1.2624 2.8032-1.99681 4.3056-1.99681 2.8032 0 5.1216 2.04961 5.1264 5.14558v9.6336h-3.6288v-8.832c0-1.272-.5664-2.7408-2.4048-2.7408-2.16 0-3.4032 1.9152-3.4032 4.1568v7.4256h-3.6288v-14.39518h3.6336z"/><path d="m12 24c6.6274 0 12-5.3726 12-12 0-6.62743-5.3726-12-12-12-6.62741 0-12 5.37257-12 12 0 6.6274 5.37259 12 12 12z"/></g><path d="m11.4479 4.80005h-3.70083c.72 3.0096 2.82243 5.58235 5.45283 7.19995-2.6352 1.6176-4.73283 4.1904-5.45283 7.2h3.70083c.9168-2.784 3.456-5.2032 6.576-5.6976v-3.0095c-3.1248-.4896-5.664-2.90885-6.576-5.69285z" fill="#fff"/></svg>

<svg width="72" height="24" viewBox="0 0 72 24" fill="none" xmlns="http://www.w3.org/2000/svg">
<path d="M36.12 3.67683C36.12 2.54882 37.0704 1.63202 38.1888 1.63202C39.3072 1.63202 40.2576 2.55362 40.2576 3.67683C40.2576 4.80003 39.3408 5.74563 38.1888 5.74563C37.0368 5.74563 36.12 4.82883 36.12 3.67683Z" fill="#011E0F"/>
<path d="M29.9808 1.92001H33.5808V22.08H29.9808V1.92001Z" fill="#011E0F"/>
<path d="M40.008 7.68001H36.3792V22.08H40.008V7.68001Z" fill="#011E0F"/>
<path d="M66.0961 14.3904C68.8273 12.7104 70.6848 10.2096 71.4192 7.67524H67.7904C66.8448 10.0944 64.6752 11.9136 62.2896 12.6864V1.91523H58.6608V22.0752H62.2896V16.08C65.0592 16.7712 67.248 19.1664 67.9968 22.0752H71.6496C71.0928 19.0224 69.0049 16.1664 66.0961 14.3904Z" fill="#011E0F"/>
<path d="M46.44 9.29283C47.3904 8.03043 49.2432 7.29602 50.7456 7.29602C53.5488 7.29602 55.8672 9.34563 55.872 12.4416V22.0752H52.2432V13.2432C52.2432 11.9712 51.6768 10.5024 49.8384 10.5024C47.6784 10.5024 46.4352 12.4176 46.4352 14.6592V22.0848H42.8064V7.68962H46.44V9.29283Z" fill="#011E0F"/>
<path d="M12 24C18.6274 24 24 18.6274 24 12C24 5.37257 18.6274 0 12 0C5.37259 0 0 5.37257 0 12C0 18.6274 5.37259 24 12 24Z" fill="#011E0F"/>
<path d="M11.4479 4.80005H7.74707C8.46707 7.80965 10.5695 10.3824 13.1999 12C10.5647 13.6176 8.46707 16.1904 7.74707 19.2H11.4479C12.3647 16.416 14.9039 13.9968 18.0239 13.5024V10.4929C14.8991 10.0033 12.3599 7.58405 11.4479 4.80005Z" fill="white"/>
</svg>
